!!!!SEGMENT: pl-wtm--r-1405--004_stefani-jozef--piano-music.krn
!!!cenid: 18xx:1877
!!!COM: Stefani, Józef
!!!COM-rismid: pe30024097
!!!CDT: 1800/04/16-1876/03/19
!!!CNT: Polish
!!!OTL: [Piano music]
!!!PDT:
!!!AGN: Secular
!!!SMS-siglum: PL-Wtm
!!!SMS-shelfmark: R 1405
!!!SMS-shelfwork: 004 W
!!!SMS-variant:
!!!SMS-altvar:
!!!NIFC-rismid: 1001117993
!!!URL-scan: http://repozytorium.nifc.pl/skany/pl-wtm-nut--r1405
!!!ONB-nifc: UWAGA: skan 0004, str. 5
!!!AIN: 1 forte
!!!key:
**kern	**kern	**dynam
*part1	*part1	*part1
*staff2	*staff1	*
*Iforte	*Iempty	*
*I"fortepian	*	*
*I'pf	*	*
*clefF4	*clefG2	*
*k[f#c#]	*k[f#c#]	*
*D:	*D:	*
*M6/8	*M6/8	*
*>[A,B,B1,B,B2,C,D,D,E]	*	*
=1	=1	=1
*>A	*	*
8A\L 8F#\ 8D\	2.r	.
8r	.	.
8A\J 8F#\ 8D\	.	.
*rep	*	*
8A\L 8F#\ 8D\	.	.
8r	.	.
8A\J 8F#\ 8D\	.	.
*Xrep	*	*
=2	=2	=2
8A\L 8F#\ 8D\	4r	.
8r	.	.
8A\J 8F#\ 8D\	8r	.
.	(16qqdd/LL	.
.	16qqff#/JJ	.
*rep	*	*
8A\L 8F#\ 8D\	[4.aa\)	sfz
8r	.	.
8A\J 8F#\ 8D\	.	.
*Xrep	*	*
=3	=3	=3
8A\L 8F#\ 8D\	8aa\L]	.
8r	16r	.
!	!LO:N:vis=8	!
.	16gg#X\K	.
8A\J 8F#\ 8D\	8aa\J	.
*rep	*	*
8A\L 8F#\ 8D\	8fff#\L	.
8r	8r	.
8A\J 8F#\ 8D\	8aa\J	.
*Xrep	*	*
=4	=4	=4
8A\L 8G\ 8D\	8ggn\L	.
8r	8r	.
8A\J 8G\ 8D\	8fff#\J 8ff#\	.
*rep	*	*
8A\L 8G\ 8D\	8eee\L 8ee\	.
8r	8r	.
8A\J 8G\ 8D\	8gg\J	.
*Xrep	*	*
=5	=5	=5
*rep	*	*
8A\L 8G\ 8D\	8ee\L	.
8r	16r	.
.	16gg\K	.
8A\J 8G\ 8D\	8aa\J	.
8A\L 8G\ 8D\	4bb\	.
8r	.	.
8A\J 8G\ 8D\	8aa\	.
*Xrep	*	*
!!LO:LB:g=original
=6	=6	=6
8A\L 8F#\ 8D\	(4ff#\	.
8r	.	.
8A\J 8F#\ 8D\	8dd\)|	.
.	(16qqdd/LL	.
.	16qqff#/JJ	.
*rep	*	*
8A\L 8F#\ 8D\	[4.aa\)	sfz
8r	.	.
8A\J 8F#\ 8D\	.	.
*Xrep	*	*
=7	=7	=7
*rep	*	*
8A\L 8F#\ 8D\	8aa\L]	.
8r	16r	.
.	16gg#X\K	.
8A\J 8F#\ 8D\	8aa\J	.
8A\L 8F#\ 8D\	8fff#\L	.
8r	8r	.
8A\J 8F#\ 8D\	8aa\J	.
*Xrep	*	*
=8	=8	=8
8A\L 8G\ 8D\	8ggn\L	.
8r	8r	.
8A\J 8G\ 8D\	8fff#\J 8ff#\	.
*rep	*	*
8A\L 8G\ 8D\	8eee\L 8ee\	.
8r	8r	.
8A\J 8G\ 8D\	8gg\J	.
*Xrep	*	*
=9	=9	=9
*rep	*	*
8A\L 8G\ 8D\	8ee\L	.
8r	16r	.
.	16gg\K	.
8A\J 8G\ 8D\	8aa\J	.
8A\L 8G\ 8D\	4bb\	.
8r	.	.
8A\J 8G\ 8D\	8aa\	.
*Xrep	*	*
=10	=10	=10
8A\L 8F#\ 8D\	(4.dd\	.
8r	.	.
8A\J 8F#\ 8D\	.	.
8A\ 8F#\ 8D\	8dd\)	.
8r	8r	.
8r	8ee\	.
!!LO:LB:g=original
=11	=11	=11
.	8qbb/	mf
8A\L	8aa\L	.
8e\ 8c#\	8r	.
8e\J 8c#\	8gg#X\J	.
*rep	*	*
8A\L	8aa\L	.
8e\ 8c#\	8r	.
8e\J 8c#\	8bb\J	.
*Xrep	*	*
=12	=12	=12
*rep	*	*
8A\L	8aa\L	.
8e\ 8c#\	8r	.
8e\J 8c#\	8bb\J	.
8A\L	[4.eee\	.
8e\ 8c#\	.	.
8e\J 8c#\	.	.
*Xrep	*	*
=13	=13	=13
*rep	*	*
8A\L	8eee\L]	.
8e\ 8c#\	8ddd\	.
8e\J 8c#\	8ccc#\J	.
8A\L	8bb\L	.
8e\ 8c#\	8ccc#\	.
8e\J 8c#\	8aa\J	.
*Xrep	*	*
=14	=14	=14
8G#X\L	8bb\L	.
8e\ 8d\	8r	.
8e\J 8d\	(8ccc#\J	.
*rep	*	*
8G#\L	8bb\L)	.
8e\ 8d\	8r	.
8e\J 8d\	8ee\J	.
*Xrep	*	*
=15	=15	=15
.	(8qbb/	.
8A\L	8aa\L)	.
8e\ 8c#\	8r	.
8e\J 8c#\	8gg#X\J	.
*rep	*	*
8A\L	8aa\L	.
8e\ 8c#\	8r	.
8e\J 8c#\	8bb\J	.
*Xrep	*	*
!!LO:LB:g=original
=16	=16	=16
8A\L	8aa\L	.
8e\ 8c#\	8r	.
8e\J 8c#\	8ccc#\J	.
*rep	*	*
8A\L	[4.eee\	.
8e\ 8c#\	.	.
8e\J 8c#\	.	.
*Xrep	*	*
=17	=17	=17
8A\L	8eee\L]	.
8e\ 8c#\	8ddd\	.
8e\J 8c#\	8ccc#\J	.
8E\L	8ddd\L	.
8e\ 8d\ 8G#X\	8bb\	.
8e\J 8d\ 8G#\	8ddd\J	.
=18	=18	=18
8A\L	4aa\	.
8e\ 8c#\	.	.
8e\J 8c#\	8r	.
8A\	8r	.
8r	8r	.
=!|:	=!|:	=!|:
*>B	*	*
8r	8a/	f
=19	=19	=19
8A\L 8Fn\ 8D'\	8dd/ 8a/ 8fn/	.
(16A\L	8r	.
16G\	.	.
16F\	8r	.
16E\JJ	.	.
8D\)	8d/L	.
8r	8gn/	.
8r	8b-X/J	.
=20	=20	=20
.	8qb-X/	.
8c#\L 8A\	8a/L	.
8r	8r	.
8c#\J 8A\	8g#X/J	.
8c#\ 8A\	8a/	.
8r	8r	.
8r	8aa\	.
!!LO:LB:g=original
=21	=21	=21
8a>\L 8fn>\ 8d>\	8ddd/ 8aa/ 8ffn/	.
16a>\L	8r	.
16g>\	.	.
16f>\	8r	.
16e>\JJ	.	.
8d>\	8dd'</L	.
8r>	8ggn'</	.
8r>	8bb-X'</J	.
=22	=22	=22
!LO:TX:t=1ma	!	!
*>B1	*	*
4.cc#>\ 4.a>\	4.aa/	.
8cc#>\ 8a>\	8aa/	.
8r	8r	.
=23:|!	=23:|!	=23:|!
!LO:TX:t=2	!	!
*>B2	*	*
4cc#>\ 4a>\	4aa/	.
8r	8r	.
[>4.c#\ [>4.A\	[4.a/ [<4.e/	.
=24	=24	=24
*>C	*	*
8c#\]L 8A\]	4a/] 4e/]	.
8r	.	p
8A\J 8G\	8r	.
8A\L 8F#\	4r	.
8r	.	.
8A\J 8G\ 8E\	8r	.
=25	=25	=25
8A\L 8F#\ 8D\	4r	.
8r	.	.
8A\J 8F#\ 8D\	8r	.
.	(16qqdd/LL	.
.	16qqff#/JJ	.
8A\L 8F#\ 8D\	[4.aa\)	sf
8r	.	.
8A\J 8F#\ 8D\	.	.
!!LO:LB:g=original
=26	=26	=26
!	!	!LO:DY:rj
8A\L 8F#\ 8D\	8.aa\L]	p
8r	.	.
.	16gg#X\K	.
8A\J 8F#\ 8D\	8aa\J	.
*rep	*	*
8A\L 8F#\ 8D\	8fff#\L	.
8r	8r	.
8A\J 8F#\ 8D\	8aa\J	.
*Xrep	*	*
=27	=27	=27
8A\L 8G\ 8D\	8ggn\L	.
8r	8r	.
8A\J 8G\ 8D\	8fff#\J	.
*rep	*	*
8A\L 8G\ 8D\	8eee\L	.
8r	8r	.
8A\J 8G\ 8D\	8gg\J	.
*Xrep	*	*
=28	=28	=28
*rep	*	*
8A\L 8G\ 8D\	8ee\L	.
8r	16r	.
.	16gg\K	.
8A\J 8G\ 8D\	8aa\J	.
8A\L 8G\ 8D\	4bb\	.
8r	.	.
8A\J 8G\ 8D\	8aa\	.
*Xrep	*	*
=29	=29	=29
8A\L 8F#\ 8D\	4ff#\	.
8r	.	.
8A\J 8F#\ 8D\	8dd\	.
.	16qqdd/LL	sf
.	16qqff#/JJ	.
8A\L 8F#\ 8D\	[4.aa^<\	.
8r	.	.
8A\J 8F#\ 8D\	.	.
=30	=30	=30
*rep	*	*
8A\L 8F#\ 8D\	8.aa\L]	p
8r	.	.
.	16gg#X\K	.
8A\J 8F#\ 8D\	8aa\J	.
8A\L 8F#\ 8D\	8fff#\L	.
8r	8r	.
8A\J 8F#\ 8D\	8aa\J	.
*Xrep	*	*
!!LO:LB:g=original
=31	=31	=31
8A\L 8G\ 8D\	8ggn\L	.
8r	8r	.
8A\J 8G\ 8D\	8fff#\J	.
*rep	*	*
8A\L 8G\ 8D\	8eee\L	.
8r	8r	.
8A\J 8G\ 8D\	8gg\J	.
*Xrep	*	*
=32	=32	=32
*rep	*	*
8A\L 8G\ 8D\	8ee\L	.
8r	16r	.
.	16gg\K	.
8A\J 8G\ 8D\	8aa\J	.
8A\L 8G\ 8D\	4bb\	.
8r	.	.
8A\J 8G\ 8D\	8aa\	.
*Xrep	*	*
=33	=33	=33
8A\ 8F#\ 8D\	8dd\	.
8r	8r	.
(32D\LLL	(32dd\LLL	.
32E\	32ee\	.
32F#\	32ff#\	.
32G\JJJ	32gg\JJJ	.
8A\L)	8aa\L)	.
8A\ 8AA\	8ccc#\ 8ee\	.
8A\J 8AA\	8eee\J 8gg\	.
=34!|:	=34!|:	=34!|:
*>D	*	*
8A\ 8D\	8ddd\ 8ff#\	.
8r	8r	.
(32D\LLL	(32dd\LLL	.
32E\	32ee\	.
32F#\	32ff#\	.
32G\JJJ	32gg\JJJ	.
8A\L)	8aa\L)	.
8A\ 8AA\	8ccc#\ 8ee'\	.
8A\J 8AA\	8eee\J 8gg'\	.
!!LO:LB:g=original
=35:|!	=35:|!	=35:|!
*>E	*	*
8A\L 8D\	8ddd\L 8ff#\	.
8A\	8aa\	.
8F#\J	8ff#\J	.
8d\L	8dd/L	.
8A\	8a/	.
8F#\J	8f#/J	.
=36	=36	=36
4D\	4d/	.
8r	8r	.
4r;	4r;	.
8r	8r	.
==	==	==
*-	*-	*-
!!!system-decoration: {(s1,s2)}
!!!RDF**kern: > = above
!!!RDF**kern: < = below
!!!EED: Leszek Kubiak
!!!EST: 2021-05-05
!!!ENC: Tomasz Grochalski
!!!END: 2021-04-10
!!!RDF**kern: | = vertical stroke
